assets/svgs/valentine-color/ValentineColor10.svg

<svg xmlns="http://www.w3.org/2000/svg" data-name="Layer 1" viewBox="0 0 128 128"><path fill="#fc574f" d="M58.515 30.014a6.591 6.591 0 00-9.155-.156 6.588 6.588 0 00-9.319 9.3l-.009.009.173.173 9.155 9.16 9.155-9.155.173-.173-.009-.009a6.591 6.591 0 00-.164-9.149zM77.3 99.914H51.485a2.678 2.678 0 01-2.631-2.179l-5.588-29.458h42.248l-5.587 29.458a2.678 2.678 0 01-2.627 2.179z"/><path fill="#fff3f3" d="M43.266 68.277s-.739-4.1 3.957-7.61C53.6 55.9 74.893 55.5 67.39 44.833c0 0 19.581 9.387 18.124 23.443z"/><path fill="#30317b" d="M39.147 40.052l9.329 9.329a1.249 1.249 0 001.768 0l9.328-9.328a1.252 1.252 0 00.15-.181A7.839 7.839 0 0049.36 28.251 7.839 7.839 0 0039 39.872a1.256 1.256 0 00.147.18zm1.941-9.152a5.321 5.321 0 017.419-.126 1.249 1.249 0 001.705 0 5.338 5.338 0 017.551 7.538 1.233 1.233 0 00-.084.1l-8.32 8.32-8.32-8.32a1.223 1.223 0 00-.084-.1 5.323 5.323 0 01.133-7.412zM89.724 67.027H44.505a7.855 7.855 0 013.467-5.359c1.855-1.386 5.405-2.462 8.838-3.5 5.779-1.752 11.756-3.564 13.128-7.547a5.4 5.4 0 00.171-2.822c4.376 2.706 11.827 8.235 13.762 15.471a1.25 1.25 0 102.415-.646C83.218 51.15 68.553 44 67.931 43.707a1.25 1.25 0 00-1.563 1.846c1.206 1.715 1.6 3.105 1.206 4.252-.956 2.775-6.552 4.472-11.489 5.968-3.807 1.154-7.4 2.244-9.609 3.892-3.531 2.635-4.334 5.622-4.476 7.362h-2.943a1.25 1.25 0 000 2.5H52.75l2.763 29.137h-4.029a1.43 1.43 0 01-1.4-1.162l-4.676-24.644a1.25 1.25 0 10-2.456.466l4.673 24.644a3.931 3.931 0 003.859 3.2H77.3a3.931 3.931 0 003.859-3.2l5.393-28.441h3.175a1.25 1.25 0 000-2.5zm-34.462 2.5h18.257l-2.763 29.137H65.64V73.375a1.25 1.25 0 10-2.5 0v25.289h-5.116zM78.7 97.5a1.43 1.43 0 01-1.4 1.162h-4.033l2.763-29.135H84z"/></svg>

<svg id="Layer_1" data-name="Layer 1" xmlns="http://www.w3.org/2000/svg" viewBox="0 0 128 128"><title>VALENTINE CUP CAKE</title><path d="M58.515,30.014a6.591,6.591,0,0,0-9.155-.156,6.588,6.588,0,0,0-9.319,9.3l-.009.009.173.173L49.36,48.5l9.155-9.155.173-.173-.009-.009A6.591,6.591,0,0,0,58.515,30.014Z" style="fill:#fc574f"/><path d="M77.3,99.914H51.485a2.678,2.678,0,0,1-2.631-2.179L43.266,68.277H85.514L79.927,97.735A2.678,2.678,0,0,1,77.3,99.914Z" style="fill:#fc574f"/><path d="M43.266,68.277s-.739-4.1,3.957-7.61C53.6,55.9,74.893,55.5,67.39,44.833c0,0,19.581,9.387,18.124,23.443Z" style="fill:#fff3f3"/><path d="M39.147,40.052l9.329,9.329a1.249,1.249,0,0,0,1.768,0l9.328-9.328a1.252,1.252,0,0,0,.15-.181A7.839,7.839,0,0,0,49.36,28.251,7.839,7.839,0,0,0,39,39.872,1.256,1.256,0,0,0,39.147,40.052ZM41.088,30.9a5.321,5.321,0,0,1,7.419-.126,1.249,1.249,0,0,0,1.705,0,5.338,5.338,0,0,1,7.551,7.538,1.233,1.233,0,0,0-.084.1l-8.32,8.32-8.32-8.32a1.223,1.223,0,0,0-.084-.1A5.323,5.323,0,0,1,41.088,30.9Z" style="fill:#30317b"/><path d="M89.724,67.027H44.505a7.855,7.855,0,0,1,3.467-5.359c1.855-1.386,5.405-2.462,8.838-3.5,5.779-1.752,11.756-3.564,13.128-7.547a5.4,5.4,0,0,0,.171-2.822c4.376,2.706,11.827,8.235,13.762,15.471a1.25,1.25,0,1,0,2.415-.646C83.218,51.15,68.553,44,67.931,43.707a1.25,1.25,0,0,0-1.563,1.846c1.206,1.715,1.6,3.105,1.206,4.252-.956,2.775-6.552,4.472-11.489,5.968-3.807,1.154-7.4,2.244-9.609,3.892C42.945,62.3,42.142,65.287,42,67.027H39.057a1.25,1.25,0,0,0,0,2.5H52.75l2.763,29.137H51.484a1.43,1.43,0,0,1-1.4-1.162L45.408,72.858a1.25,1.25,0,1,0-2.456.466l4.673,24.644a3.931,3.931,0,0,0,3.859,3.2H77.3a3.931,3.931,0,0,0,3.859-3.2l5.393-28.441h3.175a1.25,1.25,0,0,0,0-2.5Zm-34.462,2.5H73.519L70.756,98.664H65.64V73.375a1.25,1.25,0,1,0-2.5,0V98.664H58.024ZM78.7,97.5a1.43,1.43,0,0,1-1.4,1.162H73.267L76.03,69.527H84Z" style="fill:#30317b"/></svg>
